X:1
T:Christus Factus Est
T:Johann Michael Haydn edit BMarble
T:Christus Factus Est
T:Copyright © 2015 by CPDL.  This edition can be fully distributed, duplicated, performed, and recorded. 
T:Copyright © 2015 by CPDL.  This edition can be fully distributed, duplicated, performed, and recorded. 
T:Copyright © 2015 by CPDL.  This edition can be fully distributed, duplicated, performed, and recorded. 
T:Copyright © 2015 by CPDL.  This edition can be fully distributed, duplicated, performed, and recorded. 
T:Copyright © 2015 by CPDL.  This edition can be fully distributed, duplicated, performed, and recorded. 
T:Copyright © 2015 by CPDL.  This edition can be fully distributed, duplicated, performed, and recorded. 
T:Copyright © 2015 by CPDL.  This edition can be fully distributed, duplicated, performed, and recorded. 
T:Copyright © 2015 by CPDL.  This edition can be fully distributed, duplicated, performed, and recorded. 
T:Copyright © 2015 by CPDL.  This edition can be fully distributed, duplicated, performed, and recorded. 
T:Copyright © 2015 by CPDL.  This edition can be fully distributed, duplicated, performed, and recorded. 
T:Copyright © 2015 by CPDL.  This edition can be fully distributed, duplicated, performed, and recorded. 
C:Johann Michael Haydn
C:edit BMarble
Z:Copyright © 2015 by CPDL.  This edition can be fully distributed, duplicated, performed, and recorded.
Z:
%%score [ 1 2 3 4 ]
L:1/8
Q:1/2=92
M:4/2
K:Eb
V:1 treble nm="Soprano" snm="S."
V:2 treble nm="Alto" snm="A."
V:3 treble-8 transpose=-12 nm="Tenor" snm="T."
V:4 bass nm="Baritone" snm="Bar."
V:1
 z8!f! A8- | A4 G4 c4 B2 A2 | G8 c8- |!<(! c4 d4!<)! e8 | z4!p! B4"^dolce" e8- | (e4 d4 c4 f4) | %6
w: Chri-|* stus fa- * *||* ctus est|pro no-||
 B12 z4 | z4 B4 (e8 | d2 c2 B2 A2) G4!f! _d4 | _d12 B4 | B12 E4 | (_D12 C2 D2 | E4) _D4 C4!pp! A4 | %13
w: bis,|pro no-|* * * * bis o-|be- di-|ens, o-|be- * *|* di- ens, o-|
 A16- | (A12 G4 | F12) F4 | !fermata!G16 ||!f![Q:1/2=104] c8 c4 B4 | A8 G8 | z4 c4 f8 | =e4 z4 f8 | %21
w: be-||* di-|ens|us- que ad|mor- tem,|pro no-|bis us-|
 f4 e4 =d4 _d4 |"^dim." c12 B4- | B4 _A2 G2 A4 G4 |!p! ^F8 G8- | G4 ^F4 z8 | d8 d4 c4 | B8 =A8 | %28
w: que ad mor- *||||* tem,|us- que ad|mor- *|
"^rit.""^dim." G8 c8 | !fermata!d16 ||[Q:1/2=92] z16 | z16 | z16 |!p!"^dolce" d12 c4- | %34
w: |tem,||||o- be-|
 (c4 B8) (=A2 G2) | ^F8 z8 | z16 | z16 | z16 | z8 c8 | B8 _A8 | G8 z8 | z4!f! E4 B8- | (B12 A4) | %44
w: * * di- *|ens,||||o-|be- di-|ens,|pro no-||
 G4 G4 e8- | (e4 d8 c4-) | c4 =B4 !fermata!z8 ||!pp![Q:1/2=104] d8 e4 d4 | c8 =B4 G4 | G8 G4 G4 | %50
w: bis, pro no-||* bis,|us- que ad|mor- tem pro|no- bis o-|
 G6 G2 G4 d4 | d8 e4 d4 | c6 c2 =B4 z4 |!f! G8 G4 G4 |!<(! G12!<)!!>)!!>(! ^F4 | %55
w: be- di- ens, pro|no- bis o-|be- di- ens|us- que ad|mor- *|
!<(! G12!<)!!>)!!>(! ^F4 | G8 !fermata!z8 ||[Q:1/2=92] z16 |!mf! c12 B4 | c4 d4 e8 | d8 z8 | z16 | %62
w: |tem,||mor- tem|au- tem cru-|cis,||
 z16 | G12 E4 | F4 G4 A8- | (A4 G4) F8 | z16 | z4!f! B4 e8- | e4 d4 c8- | c8 B8 | G4 A8 G4- | %71
w: |mor- tem|au- tem cru-|* * cis,||pro no-|||bis, pro no-|
 (G4 F4) G8 | z16 | d12 =B4 | c4 d4 e8 |"^rit." d8 c4 f4- | (f4 e4 d6) d2 |[Q:1/2=92] c4 B4 B4 B4 | %78
w: * * bis,||mor- tem|au- tem cru-|cis, o- be-|* * * di-|ens, us- que ad|
 B4 A4 z8 |!>(!!<(! c16!>)!!<)! | c4 =B4[Q:1/4=50] !fermata!z8 ||!pp! ^F8 F8 | ^F8 F8 | G16- | %84
w: mor- tem|ad|mor- tem,|mor- tem|au- tem|cru-|
 G16 | G16 |] %86
w: |cis.|
V:2
!f! G12 F4 | E12 F4 | G4 z4 (E8 |!<(! A4) F4!<)! E8 | z8 z4!p! E4 |"^dolce" B12 A4- | A4 G8 F4 | %7
w: Chri- stus|fa- ctus|est, fa-|* ctus est|pro|no- *||
 E4 D4 z4 E4 | (A4 F4) G4 z4 | z4!f! G4 G8- | G4 G4 G4 C4 | B,16- | B,4 B,4 A,4 z4 | %13
w: * bis, pro|no- * bis|o- be-|* di- ens, o-|be-|* di- ens,|
 z4!pp! F4 F8- | F12 E4- | E4 D2 C2 D4 D4 | !fermata!E16 || z16 |!f! c8 c4 B4 | A4 G4 z4 F4 | %20
w: o- be-||* * * * di-|ens||us- que ad|mor- tem pro|
 (B4 c2 G2) A4 z4 | z4 F4 (B8 |"^dim." =A8 F8) |!p! F8 z8 | z16 | D8 D4 C4 | B,8 =A,4 =A4- | %27
w: no- * * bis,|pro no-||bis||us- que ad|mor- tem ad|
 (A4 G2 F2) (D4 F4 |"^dim." G16) | !fermata!^F16 || z16 | z16 | z16 | z8"^dolce"!p! E8 | %34
w: _ _ _ mor- *||tem,||||o-|
 (D8 C4) ^C4 | D8 z8 | z16 | z16 | z16 | B12 _A4- | (A4 G8) F4 | E8 z4!f! B,4 | E12 D4 | %43
w: be- * di-|ens,||||o- be-|* * di-|ens pro|no- *|
 E4 F4 G4 D4 | E8 z4 G4 | A16 | G8 !fermata!z8 ||!pp! G8 G4 G4 | G8 G4 D4 | E8 F4 E4 | %50
w: |bis, pro|no-|bis,|us- que ad|mor- tem pro|no- bis o-|
 E6 D2 D4 G4 | G8 G4 G4 | G6 G2 G4 z4 |!f! D8 E4 E4 | D8!<(! C4!>(! E4-!<)! | %55
w: be- di- ens, pro|no- bis o-|be- di- ens|us- que ad|mor- * *|
 E4 D4!>)!!<(! C4!>(! E4-!<)! | E4 D4!>)! !fermata!z8 ||!mf! G12 E4 | F4 G4 A8 | G4 G8 C4 | %60
w: |* tem,|mor- tem|au- tem cru-|cis, mor- tem|
 C4 =B,4 z8 | z16 | z16 | z8 C8- | C4 B,4 C4 D4 | E12 D4 | z16 | z8 z4!f! E4 | B12 A4 | G8 F4 G4 | %70
w: cru- cis,|||mor-|* tem au- tem|cru- cis,||pro|no- *|* bis, pro|
 =E4 F8 _E2 D2 | C8 D4 E4 | D4 C4 =B,8 | z16 | z4 G4 c8- | (c4 =B4) A8 | G8 G4 G4 | G4 G4 G4 G4 | %78
w: no- * * *|* bis o-|be- di- ens,||pro no-|* * bis|o- be- di-|ens, us- que ad|
 G4 F4 z8 |!>(!!<(! =A16!>)!!<)! | G4 G4 !fermata!z8 ||!pp! E8 E8 | E8 E8 | (E8 D4 C4 | D16) | %85
w: mor- tem|ad|mor- tem,|mor- tem|au- tem|cru- * *||
 =E16 |] %86
w: cis.|
V:3
 z16 |!f! c12 d4 | e4 d4 c4 (A2 G2 |!<(! F4) B4!<)! B8 | z16 | z8 z4!p! B4 |"^dolce" e12 d4 | %7
w: |Chri- stus|fa- ctus est, fa- *|* ctus est||pro|no- *|
 c4 f4 B4 A2 G2 | A2 B2 c2 d2 e4 z4 | z4!f! B4 (B4 _d4-) | d4 _d4 d4 z4 | z4 E4 E8- | E4 E4 E4 z4 | %13
w: * * bis, no- *|* * * * bis|o- be- *|* di- ens,|o- be-|* di- ens,|
 z8 z4!pp! =d4 | (d12 B4-) | B12 B4 | !fermata!B16 || z8 z4!f! c4 | (f8 =e6 d2) | c4 z4 c8 | %20
w: o-|be- *|* di-|ens,|pro|no- * *|bis us-|
 c4 B4 (A2 B2 c2 B2) | =A4 z4 f8 | f4 e4 =d4 _d4 |"^dim." c16- |!p! c4 B2 =A2 B2 A2 G2 B2 | %25
w: que ad mor- * * *|tem, us-|que ad mor- *|||
 =A8 z4 D4 | G8 ^F8 | B8 c4 d4- |"^dim." (d4 c2 B2) (=A4 G4) | !fermata!=A16 || z16 |!mf! G12 F4 | %32
w: tem, pro|no- bis|us- que ad|_ _ _ mor- *|tem,||mor- tem|
 G4 =A4 B8 | =A8 z8 | z16 | d12 B4 | c4 d4 e8- | (e4 d4) c4 c4- | c4 B4 _A8- | A4 G4 z8 | z16 | %41
w: au- tem cru-|cis,||mor- tem|au- tem cru-|* * cis, mor-|* tem cru-|* cis,||
 z4!f! E4 B8- | B4 A4 G4 F4 | G4 D4 E4 F4 | E4 E4 c8- | (c4 f8 e4-) | e4 d4 !fermata!z8 || %47
w: pro no-|||bis, pro no-||* bis,|
!pp! =B8 c4 d4 | e8 d4 =B4 | c8 =B4 c4 | c6 =B2 B4 B4 | =B8 c4 d4 | e6 e2 d4 z4 |!f! =B8 c4 c4 | %54
w: us- que ad|mor- tem pro|no- bis o-|be- di- ens, pro|no- bis o-|be- di- ens|us- que ad|
!<(! =B8!<)!!>)!!>(! c8- |!<(! c4 =B4!<)!!>)!!>(! c8- | c4 =B4 !fermata!z8 || z16 | z16 | z16 | %60
w: mor- *||* tem,||||
 z8"^dolce"!p! A8 | G8 F8 | E4 e8 d2 c2 | =B8 z8 | z16 | z16 | c8 B8 | A8 G8 | z4!f! B4 f8- | %69
w: o-|be- *|* * * di-|ens,|||o- be-|di- ens|pro no-|
 (f4 e4 _d8) | c8 _B8 | (c2 e2 d2 c2) =B4 z4 | z8 d8- | d4 =B4 c4 d4 | e4 d4 z4 c4 | %75
w: |bis, pro|no- * * * bis|mor-|* tem au- tem|cru- cis, pro|
 f8- (f2 e2 d2 c2) | =B2 B2 c8 B4 | c4 c4 c4 c4 | c4 c4 z8 |!<(!!>(! d16!<)!!>)! | %80
w: no- * * * *|bis o- be- di-|ens, us- que ad|mor- tem|ad|
 d4 d4 !fermata!z8 ||!pp! c8 c8 | c8 c8 | (c8 =B4 =A4 | =B16) | c16 |] %86
w: mor- tem,|mor- tem|au- tem|cru- * *||cis.|
V:4
 z16 | z8!f! C,8- | C,4 B,,4 A,,8 |!<(! A,,8!<)! G,,8 | z16 | z16 | z4!p!"^dolce" E,4 B,8- | %7
w: |Chri-|* stus fa-|ctus est|||pro no-|
 (B,4 A,4) G,4 C4 | (F,4 B,4) E,4 z4 | z4!f! E,4 E,8- | E,4 E,4 E,8- | E,4 G,,4 G,,8- | %12
w: * * bis, pro|no- * bis|o- be-|* di- ens,|_ o- be-|
 G,,4 G,,4 A,,4 z4 | z16 | z4!pp! B,,4 B,,8- | B,,12 B,,4 | !fermata!E,16 || z16 | z4!f! F,4 C8 | %19
w: * di- ens,||o- be-|* di-|ens,||pro no-|
 C4 B,4 (A,8 | G,8 F,8-) | F,16 | F,16 |"^dim." F,8 F,4 E,4 |!p! D,16 | D,16 | z8 z4 D,4 | %27
w: bis ad mor-|||tem,|us- que ad|mor-|tem,|pro|
 G,8 G,4 F,4 |"^dim." E,16 | !fermata!D,16 ||!mf! D,12 B,,4 | C,4 D,4 E,8 | D,4 D,8 G,4 | %33
w: no- bis ad|mor-|tem,|mor- tem|au- tem cru-|cis, mor- tem|
 G,4 ^F,4 z8 | z16 | z8 G,8- | G,4 =F,4 G,4 =A,4 | (B,12 _A,4) | G,4 (G,8 =F,4) | E,8 z8 | %40
w: cru- cis,||mor-|* tem au- tem|cru- *|cis, cru- *|cis,|
 z8 z4!f! B,,4 | (E,12 D,4 | C,8) B,,8 | z8 z4 B,,4 | E,12 C,4 | (F,,8 F,8) | G,8 !fermata!z8 || %47
w: pro|no- *|* bis,|pro|no- bis,|no- *|bis,|
 z16 | z8 z4!pp! G,4 | E,8 D,4 C,4 | G,6 G,,2 G,,8 | z16 | z16 |!f! G,8 E,4 C,4 | %54
w: |pro|no- bis o-|be- di- ens,|||us- que ad|
!<(! G,8!<)!!>)!!>(! A,8 |!<(! G,8!<)!!>)!!>(! A,8 | G,8 !fermata!z8 || z16 | z16 | z16 | %60
w: mor- *||tem,||||
!p!"^dolce" G,12 F,4- | F,4 E,8 D,4- | D,4 C,4 F,4 ^F,4 | G,8 z8 | z16 | z8 B,8- | B,4 A,8 G,4- | %67
w: o- be-||* * * di-|ens,||o-|* be- *|
 G,4 F,4 E,4 C,4 | B,,8 z4!f! F,4 | C12 B,4- | B,4 A,4 G,8 | A,8 G,4 C4 | _B,4 A,4 G,8 | G,16 | %74
w: * * * di-|ens, pro|no- *||* bis o-|be- di- ens,|pro|
 G,16 | G,8 G,8 | G,8 G,8 | C,4 =E,4 E,4 E,4 | F,4 F,4 z8 |!<(!!>(! ^F,16!<)!!>)! | %80
w: no-|bis o-|be- di-|ens, us- que ad|mor- tem|ad|
 G,4 G,,4 !fermata!z8 ||!pp! A,,8 A,,8 | A,,8 A,,8 | G,,16- | G,,16 | C,16 |] %86
w: mor- tem,|mor- tem|au- tem|cru-||cis.|

